src/assets/tulip/pool_card.svg

<svg width="50" height="51" viewBox="0 0 50 51" fill="none" xmlns="http://www.w3.org/2000/svg">
<circle cx="25" cy="25.238" r="25" fill="url(#paint0_linear)"/>
<path fill-rule="evenodd" clip-rule="evenodd" d="M26.0045 15.4925L25.1429 16L24.2812 15.4925C24.461 15.1873 24.7887 15 25.1429 15C25.497 15 25.8248 15.1873 26.0045 15.4925ZM25.1429 18.0768C25.1788 18.1462 25.2148 18.2166 25.2508 18.2877C25.4944 18.7685 25.7291 19.2659 25.9006 19.699C25.9863 19.9155 26.0509 20.1028 26.0928 20.2551C26.1136 20.3305 26.127 20.3906 26.1348 20.4362C26.1418 20.4773 26.1427 20.4973 26.1429 20.5C26.1429 20.5004 26.1429 20.5004 26.1429 20.5C26.1429 21.0522 25.6951 21.5 25.1429 21.5C24.5906 21.5 24.1429 21.0523 24.1429 20.5C24.1429 20.5004 24.1429 20.5004 24.1429 20.5C24.143 20.4973 24.144 20.4773 24.151 20.4362C24.1588 20.3906 24.1721 20.3305 24.1929 20.2551C24.2349 20.1028 24.2994 19.9155 24.3852 19.699C24.5566 19.2659 24.7914 18.7685 25.0349 18.2877C25.071 18.2166 25.107 18.1462 25.1429 18.0768ZM25.1429 16C24.2812 15.4925 24.2813 15.4924 24.2812 15.4925L24.2806 15.4936L24.2744 15.5042L24.2564 15.5349C24.2409 15.5615 24.2186 15.6 24.1903 15.6492C24.1338 15.7474 24.0535 15.888 23.9574 16.06C23.7656 16.4033 23.5088 16.8747 23.2508 17.3839C22.9944 17.89 22.7291 18.4486 22.5256 18.9628C22.3402 19.4311 22.1429 20.0119 22.1429 20.5C22.1429 22.1568 23.486 23.5 25.1429 23.5C26.7997 23.5 28.1429 22.1568 28.1429 20.5C28.1429 20.0119 27.9455 19.4311 27.7602 18.9628C27.5566 18.4486 27.2914 17.89 27.0349 17.3839C26.777 16.8747 26.5201 16.4033 26.3284 16.06C26.2323 15.888 26.152 15.7474 26.0955 15.6492C26.0672 15.6 26.0448 15.5615 26.0294 15.5349L26.0114 15.5042L26.0052 15.4936L26.0045 15.4925C26.0045 15.4924 26.0045 15.4925 25.1429 16ZM15.1429 25C15.6952 25 16.1429 25.4477 16.1429 26C16.1429 26.8284 16.8145 27.5 17.6429 27.5C18.4713 27.5 19.1429 26.8284 19.1429 26C19.1429 25.4477 19.5906 25 20.1429 25C20.6952 25 21.1429 25.4477 21.1429 26C21.1429 26.8284 21.8145 27.5 22.6429 27.5C23.4713 27.5 24.1429 26.8284 24.1429 26C24.1429 25.4477 24.5906 25 25.1429 25C25.6952 25 26.1429 25.4477 26.1429 26C26.1429 26.8284 26.8145 27.5 27.6429 27.5C28.4713 27.5 29.1429 26.8284 29.1429 26C29.1429 25.4477 29.5906 25 30.1429 25C30.6952 25 31.1429 25.4477 31.1429 26C31.1429 26.8284 31.8145 27.5 32.6429 27.5C33.4713 27.5 34.1429 26.8284 34.1429 26C34.1429 25.4477 34.5906 25 35.1429 25C35.6952 25 36.1429 25.4477 36.1429 26C36.1429 32.0751 31.218 37 25.1429 37C19.0677 37 14.1429 32.0751 14.1429 26C14.1429 25.4477 14.5906 25 15.1429 25ZM16.8071 29.3996C18.1483 32.6849 21.3752 35 25.1429 35C28.9105 35 32.1375 32.6849 33.4787 29.3996C33.2109 29.4652 32.9309 29.5 32.6429 29.5C31.6635 29.5 30.7781 29.0978 30.1429 28.4495C29.5076 29.0978 28.6222 29.5 27.6429 29.5C26.6635 29.5 25.7781 29.0978 25.1429 28.4495C24.5076 29.0978 23.6222 29.5 22.6429 29.5C21.6635 29.5 20.7781 29.0978 20.1429 28.4495C19.5076 29.0978 18.6222 29.5 17.6429 29.5C17.3548 29.5 17.0749 29.4652 16.8071 29.3996Z" fill="#2C3437" fill-opacity="0.8"/>
<defs>
<linearGradient id="paint0_linear" x1="50" y1="0.238026" x2="-1.24642" y2="1.54993" gradientUnits="userSpaceOnUse">
<stop stop-color="#AAF5D4"/>
<stop offset="1" stop-color="#7CE0D6"/>
</linearGradient>
</defs>
</svg>

<svg width="50" height="51" fill="none" xmlns="http://www.w3.org/2000/svg"><circle cx="25" cy="25.238" r="25" fill="url(#paint0_linear)"/><path fill-rule="evenodd" clip-rule="evenodd" d="M26.005 15.492l-.862.508-.862-.508a1 1 0 011.724 0zm-.862 2.585l.108.21c.243.482.478.979.65 1.412.085.216.15.404.192.556.02.076.034.136.042.181.007.041.008.061.008.064a1 1 0 01-2 0 1.905 1.905 0 01.05-.245c.042-.152.106-.34.192-.556a17.652 17.652 0 01.758-1.622zm0-2.077l-.862-.508v.002l-.007.01-.018.03a24.354 24.354 0 00-.299.526c-.191.343-.448.815-.706 1.324a19.566 19.566 0 00-.725 1.579c-.186.468-.383 1.049-.383 1.537a3 3 0 006 0c0-.488-.198-1.069-.383-1.537a19.568 19.568 0 00-.725-1.58 37.801 37.801 0 00-.94-1.734l-.066-.114-.018-.03-.006-.011v-.002l-.862.508zm-10 9a1 1 0 011 1 1.5 1.5 0 003 0 1 1 0 112 0 1.5 1.5 0 003 0 1 1 0 112 0 1.5 1.5 0 003 0 1 1 0 112 0 1.5 1.5 0 003 0 1 1 0 112 0c0 6.075-4.925 11-11 11s-11-4.925-11-11a1 1 0 011-1zm1.664 4.4a9.003 9.003 0 0016.672 0 3.51 3.51 0 01-3.336-.95 3.49 3.49 0 01-2.5 1.05 3.49 3.49 0 01-2.5-1.05 3.49 3.49 0 01-2.5 1.05 3.49 3.49 0 01-2.5-1.05 3.49 3.49 0 01-3.336.95z" fill="#2C3437" fill-opacity=".8"/><defs><linearGradient id="paint0_linear" x1="50" y1=".238" x2="-1.246" y2="1.55" gradientUnits="userSpaceOnUse"><stop stop-color="#AAF5D4"/><stop offset="1" stop-color="#7CE0D6"/></linearGradient></defs></svg>
